X: 66
T:Untitled. HA.065
M:6/4
L:1/4
Q:90
S:Henry Atkinson's original MS,Hartburn,N'umberland,1694.
O:England
A:Hartburn,Northumberland
H:1/4
Z:vmp.Chris Partington.Jan.2004
K:F
c|f>gf cfg|a>gf efg|c3 ABc|!
d>cB A>GF|EFG c3/2d/c/B/|A3 F2||!
g|g>fe def|ABc c>dB|c3 g2a|!
bag fdB|c>BA G2a|g3f2|]
